assets/img/covid/doctor.svg

<svg width="76" height="73" viewBox="0 0 76 73" fill="none" xmlns="http://www.w3.org/2000/svg">
<path d="M27.6338 13.627V19.6651H26.4573C25.8338 19.6669 25.2364 19.9039 24.7955 20.3245C24.3546 20.7451 24.1061 21.315 24.1042 21.9098V16.2981C24.9604 15.0788 26.1944 14.145 27.6338 13.627Z" fill="#40240F"/>
<path d="M52.3408 16.2981V21.9098C52.339 21.315 52.0905 20.7451 51.6496 20.3245C51.2087 19.9039 50.6113 19.6669 49.9878 19.6651H48.8112V13.627C50.2507 14.145 51.4846 15.0788 52.3408 16.2981Z" fill="#40240F"/>
<path d="M63.1531 58.8906L64.1061 62.3137H60.5765H53.5173V58.9467H62.9296L63.1531 58.8906Z" fill="#13969D"/>
<path d="M60.5765 62.3137V71.2924H53.5173V65.6807V62.3137H60.5765Z" fill="#F2C4B2"/>
<path d="M59.4 45.4786L47.47 42.2239L38.2225 48.8456L28.975 42.2239L17.0451 45.4786L13.2802 58.9466H22.9277V71.2923H53.5173V58.9466H62.9295L63.1531 58.8905L59.4 45.4786ZM47.6347 67.9253H44.1052C43.4817 67.9235 42.8842 67.6864 42.4433 67.2659C42.0025 66.8453 41.754 66.2754 41.7521 65.6806V58.9466H49.9878V65.6806C49.9859 66.2754 49.7374 66.8453 49.2965 67.2659C48.8556 67.6864 48.2582 67.9235 47.6347 67.9253Z" fill="#34C1AD"/>
<path d="M52.3408 21.9098V23.4699C52.3418 24.0254 52.1983 24.5726 51.9231 25.0623C51.648 25.5519 51.2498 25.9689 50.7643 26.2757L48.8113 27.5215C45.4843 26.0773 41.8775 25.3127 38.2225 25.2768C34.5675 25.3127 30.9607 26.0773 27.6338 27.5215L25.6808 26.2757C25.1952 25.9689 24.7971 25.5519 24.5219 25.0623C24.2468 24.5726 24.1033 24.0254 24.1042 23.4699V21.9098C24.1061 21.3151 24.3546 20.7451 24.7955 20.3246C25.2364 19.904 25.8338 19.6669 26.4573 19.6652H27.6338V13.627C30.9802 12.2851 34.5957 11.6643 38.2225 11.8088C41.8493 11.6643 45.4649 12.2851 48.8113 13.627V19.6652H49.9878C50.6113 19.6669 51.2087 19.904 51.6496 20.3246C52.0905 20.7451 52.339 21.3151 52.3408 21.9098Z" fill="#F2C4B2"/>
<path d="M48.8113 13.6269C45.4649 12.2851 41.8493 11.6642 38.2225 11.8088C34.5957 11.6642 30.9802 12.2851 27.6338 13.6269C26.1944 14.1449 24.9604 15.0788 24.1042 16.2981V10.6864C24.1042 8.30513 25.0959 6.02138 26.861 4.33755C28.6261 2.65373 31.0202 1.70776 33.5164 1.70776H42.9286C45.4249 1.70776 47.8189 2.65373 49.5841 4.33755C51.3492 6.02138 52.3408 8.30513 52.3408 10.6864V16.2981C51.4846 15.0788 50.2507 14.1449 48.8113 13.6269Z" fill="#34C1AD"/>
<path d="M27.6338 15.8716V13.627C26.1944 14.145 24.9604 15.0788 24.1042 16.2981V18.5428C24.9604 17.3235 26.1944 16.3896 27.6338 15.8716Z" fill="#241408"/>
<path d="M48.8112 13.627V15.8716C50.2507 16.3896 51.4846 17.3235 52.3408 18.5428V16.2981C51.4846 15.0788 50.2507 14.145 48.8112 13.627Z" fill="#241408"/>
<path d="M38.2225 14.0535C41.8493 13.909 45.4649 14.5298 48.8113 15.8717V13.627C45.4649 12.2851 41.8493 11.6643 38.2225 11.8088C34.5957 11.6643 30.9802 12.2851 27.6338 13.627V15.8717C30.9802 14.5298 34.5957 13.909 38.2225 14.0535Z" fill="#F2A283"/>
<path d="M49.9878 58.9468V65.6808C49.9859 66.2755 49.7374 66.8455 49.2965 67.266C48.8556 67.6866 48.2582 67.9237 47.6347 67.9254H44.1052C43.4817 67.9237 42.8842 67.6866 42.4434 67.266C42.0025 66.8455 41.754 66.2755 41.7521 65.6808V58.9468H49.9878Z" fill="#13969D"/>
<path d="M47.47 42.2241L38.2225 48.8458L28.975 42.2241L33.5164 40.9895L38.2225 44.3565L42.9286 40.9895L47.47 42.2241Z" fill="#13969D"/>
<path d="M42.9286 34.3453C41.462 35.0248 39.8529 35.3778 38.2225 35.3778C36.5921 35.3778 34.983 35.0248 33.5164 34.3453C32.0602 33.7043 30.7748 32.7575 29.7561 31.5759C28.7375 30.3943 28.0119 29.0083 27.6338 27.5215C30.9607 26.0773 34.5675 25.3127 38.2225 25.2769C41.8775 25.3127 45.4843 26.0773 48.8113 27.5215C48.4331 29.0083 47.7076 30.3943 46.6889 31.5759C45.6703 32.7575 44.3848 33.7043 42.9286 34.3453Z" fill="#13969D"/>
<path d="M42.9286 34.3452V40.9894L38.2225 44.3564L33.5164 40.9894V34.3452C34.983 35.0247 36.5921 35.3777 38.2225 35.3777C39.8529 35.3777 41.462 35.0247 42.9286 34.3452Z" fill="#F2B59D"/>
<path d="M22.9277 62.3137H15.8686V71.2924H22.9277V62.3137Z" fill="#F2C4B2"/>
<path d="M22.9277 58.9468V62.3138H15.8686H12.339L13.2802 58.9468H22.9277Z" fill="#13969D"/>
<path d="M60.5765 62.3137H53.5173V71.2924H57.0469V66.8031C57.0469 66.2077 57.2948 65.6368 57.7361 65.2158C58.1774 64.7949 58.7759 64.5584 59.4 64.5584H60.5765V62.3137Z" fill="#F2A283"/>
<path d="M15.8686 62.3137H22.9277V71.2924H19.3981V66.8031C19.3981 66.2077 19.1502 65.6368 18.7089 65.2158C18.2677 64.7949 17.6691 64.5584 17.0451 64.5584H15.8686V62.3137Z" fill="#F2A283"/>
<path d="M42.9286 34.3452C41.462 35.0247 39.8529 35.3777 38.2225 35.3777C36.5921 35.3777 34.983 35.0247 33.5164 34.3452V40.9894L34.3471 41.5831L42.9286 36.1264V34.3452Z" fill="#F2A283"/>
<path d="M48.8112 20.7874V25.2767L49.8631 24.775C50.254 24.5886 50.5829 24.3021 50.8127 23.9474C51.0425 23.5928 51.1643 23.1841 51.1643 22.7671V21.9097C51.1643 21.612 51.0403 21.3266 50.8197 21.1161C50.5991 20.9056 50.2998 20.7874 49.9878 20.7874H48.8112Z" fill="#D9896D"/>
<path d="M27.6338 20.7874V25.2767L26.582 24.775C26.191 24.5886 25.8622 24.3021 25.6323 23.9474C25.4025 23.5928 25.2808 23.1841 25.2808 22.7671V21.9097C25.2808 21.612 25.4047 21.3266 25.6253 21.1161C25.846 20.9056 26.1452 20.7874 26.4573 20.7874H27.6338Z" fill="#D9896D"/>
<path d="M38.2225 25.2766C38.5474 25.2766 38.8108 24.7742 38.8108 24.1543C38.8108 23.5345 38.5474 23.032 38.2225 23.032C37.8976 23.032 37.6343 23.5345 37.6343 24.1543C37.6343 24.7742 37.8976 25.2766 38.2225 25.2766Z" fill="#D9896D"/>
<path d="M41.0462 16.2835C41.03 16.2883 41.0135 16.292 40.9968 16.2947C40.7615 16.3351 40.5815 15.9782 40.5815 15.7335C40.5815 15.6651 40.6085 14.05 42.9345 14.05C45.2605 14.05 45.2876 15.6651 45.2876 15.7335C45.291 15.8321 45.2685 15.9299 45.2223 16.0181C45.1761 16.1063 45.1075 16.1821 45.0228 16.2386C44.8522 16.3385 44.6852 16.2453 44.5522 16.0927C44.4875 16.0164 44.4346 15.9221 44.3675 15.8503C44.2986 15.7854 44.2192 15.7315 44.1322 15.6909C43.9261 15.5758 43.7081 15.4814 43.4816 15.4092C43.1811 15.3271 42.864 15.3177 42.5588 15.3818C42.2536 15.4458 41.9699 15.5814 41.7333 15.7762C41.5372 15.9824 41.3046 16.1541 41.0462 16.2835Z" fill="#43251A"/>
<path d="M35.4047 16.2835C35.4209 16.2883 35.4374 16.292 35.4542 16.2947C35.6895 16.3351 35.8695 15.9782 35.8695 15.7335C35.8695 15.6651 35.8424 14.05 33.5164 14.05C31.1904 14.05 31.1634 15.6651 31.1634 15.7335C31.16 15.8321 31.1824 15.9299 31.2286 16.0181C31.2748 16.1063 31.3434 16.1821 31.4281 16.2386C31.5987 16.3385 31.7658 16.2453 31.8987 16.0927C31.9634 16.0164 32.0164 15.9221 32.0834 15.8503C32.1523 15.7854 32.2318 15.7315 32.3187 15.6909C32.5248 15.5758 32.7429 15.4814 32.9693 15.4092C33.2698 15.3271 33.5869 15.3177 33.8922 15.3818C34.1974 15.4458 34.4811 15.5814 34.7177 15.7762C34.9138 15.9824 35.1463 16.1541 35.4047 16.2835Z" fill="#43251A"/>
<path d="M43.5169 23.5933C44.1667 23.5933 44.6934 22.5884 44.6934 21.3487C44.6934 20.109 44.1667 19.104 43.5169 19.104C42.8671 19.104 42.3404 20.109 42.3404 21.3487C42.3404 22.5884 42.8671 23.5933 43.5169 23.5933Z" fill="#43251A"/>
<path d="M32.9282 23.5933C33.5779 23.5933 34.1047 22.5884 34.1047 21.3487C34.1047 20.109 33.5779 19.104 32.9282 19.104C32.2784 19.104 31.7516 20.109 31.7516 21.3487C31.7516 22.5884 32.2784 23.5933 32.9282 23.5933Z" fill="#43251A"/>
<path d="M46.4582 8.44176H33.5164C32.5803 8.44176 31.6826 8.08702 31.0206 7.45559C30.3587 6.82415 29.9869 5.96774 29.9869 5.07476C29.9869 4.18178 30.3587 3.32537 31.0206 2.69393C31.6826 2.0625 32.5803 1.70776 33.5164 1.70776C31.0202 1.70776 28.6261 2.65373 26.861 4.33755C25.0959 6.02138 24.1042 8.30513 24.1042 10.6864V16.2981C24.9604 15.0788 26.1944 14.1449 27.6338 13.6269C30.9802 12.2851 34.5957 11.6642 38.2225 11.8088C41.8493 11.6642 45.4649 12.2851 48.8113 13.6269C50.2507 14.1449 51.4846 15.0788 52.3408 16.2981V14.0534C52.3408 12.5651 51.7211 11.1378 50.6178 10.0854C49.5146 9.03298 48.0184 8.44176 46.4582 8.44176Z" fill="#21ABAB"/>
<path d="M48.8113 11.3824C45.4649 10.0405 41.8493 9.41969 38.2225 9.5642C34.5957 9.41969 30.9802 10.0405 27.6338 11.3824C26.1944 11.9004 24.9604 12.8342 24.1042 14.0535V16.2982C24.9604 15.0789 26.1944 14.1451 27.6338 13.627C30.9802 12.2852 34.5957 11.6644 38.2225 11.8089C41.8493 11.6644 45.4649 12.2852 48.8113 13.627C50.2507 14.1451 51.4846 15.0789 52.3408 16.2982V14.0535C51.4846 12.8342 50.2507 11.9004 48.8113 11.3824Z" fill="#13969D"/>
<path d="M55.8704 61.1914V58.9468H53.5173V62.3138H60.5765H64.1061L63.7931 61.1914H55.8704Z" fill="#107C82"/>
<path d="M20.5747 61.1914H12.6531L12.339 62.3138H15.8686H22.9277V58.9468H20.5747V61.1914Z" fill="#107C82"/>
<path d="M53.5173 58.9467V51.0903C54.1414 51.0903 54.7399 51.3268 55.1812 51.7478C55.6225 52.1687 55.8704 52.7397 55.8704 53.335V58.9467H53.5173Z" fill="#21ABAB"/>
<path d="M22.9277 58.9467V51.0903C22.3036 51.0903 21.7051 51.3268 21.2638 51.7478C20.8226 52.1687 20.5747 52.7397 20.5747 53.335V58.9467H22.9277Z" fill="#21ABAB"/>
<path d="M34.8271 42.4003L35.18 42.1758L33.5164 40.9895L28.975 42.2241L38.2225 48.8458L39.4602 47.9592L34.7271 44.196C34.5865 44.0842 34.4751 43.9427 34.4019 43.7827C34.3287 43.6227 34.2957 43.4486 34.3054 43.2742C34.3151 43.0999 34.3673 42.9301 34.4579 42.7784C34.5484 42.6267 34.6748 42.4972 34.8271 42.4003Z" fill="#107C82"/>
<path d="M47.6347 67.9253H44.1052C43.4991 67.9235 42.9171 67.6986 42.4805 67.2976C42.0439 66.8966 41.7864 66.3503 41.7615 65.7727C30.6928 63.7457 22.9277 58.9466 22.9277 53.335V71.2923H53.5174V66.803C52.2302 66.803 50.9655 66.7637 49.7195 66.6963C49.5239 67.0641 49.2259 67.3734 48.8581 67.5902C48.4903 67.807 48.067 67.9229 47.6347 67.9253Z" fill="#21ABAB"/>
<path d="M49.9878 58.9468H41.7521V61.1914H49.9878V58.9468Z" fill="#107C82"/>
<path d="M31.2434 26.2544C30.0057 26.5814 28.7984 27.0052 27.6338 27.5215C28.0119 29.0083 28.7375 30.3942 29.7561 31.5759C30.7748 32.7575 32.0602 33.7042 33.5164 34.3453C34.983 35.0248 36.5921 35.3778 38.2225 35.3778C39.8529 35.3778 41.4621 35.0248 42.9286 34.3453C43.0098 34.3083 43.0863 34.2611 43.1639 34.223C36.9213 33.9121 31.9105 30.5417 31.2434 26.2544Z" fill="#107C82"/>
<path d="M27.0455 42.1118V64.1532L23.9183 65.1476C23.8011 65.1849 23.6991 65.2565 23.6268 65.3521C23.5546 65.4478 23.5158 65.5628 23.516 65.6807V71.2924H24.6925V66.0848L27.6338 65.1499L30.5751 66.0848V71.2924H31.7516V65.6807C31.7518 65.5628 31.713 65.4478 31.6408 65.3521C31.5685 65.2565 31.4666 65.1849 31.3493 65.1476L28.2221 64.1544V42.1118C28.2221 41.3676 28.532 40.6539 29.0836 40.1277C29.6352 39.6015 30.3833 39.3059 31.1634 39.3059H33.5164V38.1836H31.1634C30.0713 38.1836 29.0239 38.5975 28.2516 39.3341C27.4794 40.0708 27.0455 41.0699 27.0455 42.1118Z" fill="#E3E3E3"/>
<path d="M45.2817 38.1836H42.9286V39.3059H45.2817C46.0618 39.3059 46.8099 39.6015 47.3615 40.1277C47.9131 40.6539 48.223 41.3676 48.223 42.1118V58.9467H49.3995V42.1118C49.3995 41.0699 48.9657 40.0708 48.1934 39.3341C47.4212 38.5975 46.3738 38.1836 45.2817 38.1836Z" fill="#E3E3E3"/>
</svg>

<svg xmlns="http://www.w3.org/2000/svg" width="76" height="73" fill="none" xmlns:v="https://vecta.io/nano"><path d="M27.634 13.627v6.038h-1.177a2.42 2.42 0 0 0-1.662.659 2.2 2.2 0 0 0-.691 1.585v-5.612a7.37 7.37 0 0 1 3.53-2.67zm24.706 2.67V21.9a2.2 2.2 0 0 0-.691-1.585 2.42 2.42 0 0 0-1.662-.659H48.8v-6.038c1.44.518 2.673 1.452 3.53 2.67z" fill="#40240f"/><path d="M63.153 58.89l.953 3.423h-10.59v-3.367h9.412l.224-.056z" fill="#13969d"/><path d="M60.577 62.314v8.98h-7.06v-8.98h7.06z" fill="#f2c4b2"/><path d="M59.4 45.48l-11.93-3.255-9.248 6.622-9.247-6.622-11.93 3.255-3.765 13.468h9.648v12.346h30.6V58.947h9.412l.224-.056L59.4 45.48zM47.635 67.925h-3.53a2.42 2.42 0 0 1-1.662-.659 2.2 2.2 0 0 1-.691-1.585v-6.734h8.236v6.734a2.2 2.2 0 0 1-.691 1.585 2.42 2.42 0 0 1-1.662.659z" fill="#34c1ad"/><path d="M52.34 21.9v1.56c.001.556-.142 1.103-.418 1.592s-.673.907-1.16 1.213l-1.953 1.246c-3.327-1.444-6.934-2.21-10.59-2.245-3.655.036-7.262.8-10.59 2.245l-1.953-1.246c-.486-.307-.884-.724-1.16-1.213a3.24 3.24 0 0 1-.418-1.592V21.9a2.2 2.2 0 0 1 .691-1.585 2.42 2.42 0 0 1 1.662-.659h1.177v-6.038c3.346-1.342 6.962-1.963 10.59-1.818 3.627-.144 7.242.476 10.59 1.818v6.038h1.176a2.42 2.42 0 0 1 1.662.659 2.2 2.2 0 0 1 .691 1.585z" fill="#f2c4b2"/><path d="M48.81 13.627c-3.346-1.342-6.962-1.963-10.59-1.818-3.627-.145-7.242.476-10.59 1.818-1.44.518-2.673 1.452-3.53 2.67v-5.612c0-2.38.992-4.665 2.757-6.35s4.16-2.63 6.655-2.63h9.412c2.496 0 4.9.946 6.655 2.63s2.757 3.968 2.757 6.35v5.612c-.856-1.22-2.1-2.153-3.53-2.67z" fill="#34c1ad"/><path d="M27.634 15.872v-2.245c-1.44.518-2.673 1.452-3.53 2.67v2.245a7.37 7.37 0 0 1 3.53-2.67zM48.8 13.627v2.245c1.44.518 2.673 1.452 3.53 2.67v-2.245a7.37 7.37 0 0 0-3.53-2.67z" fill="#241408"/><path d="M38.223 14.054c3.627-.144 7.242.476 10.59 1.818v-2.245c-3.346-1.342-6.962-1.963-10.59-1.818-3.627-.144-7.242.476-10.59 1.818v2.245c3.346-1.342 6.962-1.963 10.59-1.818z" fill="#f2a283"/><path d="M49.988 58.947v6.734a2.2 2.2 0 0 1-.691 1.585 2.42 2.42 0 0 1-1.662.659h-3.53a2.42 2.42 0 0 1-1.662-.659 2.2 2.2 0 0 1-.691-1.585v-6.734h8.236zM47.47 42.224l-9.248 6.622-9.247-6.622L33.516 41l4.706 3.367L42.93 41l4.54 1.235zm-4.54-7.88c-1.467.68-3.076 1.032-4.706 1.032a11.21 11.21 0 0 1-4.706-1.032c-1.456-.64-2.742-1.588-3.76-2.77a9.98 9.98 0 0 1-2.122-4.054c3.327-1.444 6.934-2.2 10.6-2.245 3.655.036 7.262.8 10.6 2.245a9.98 9.98 0 0 1-2.122 4.054c-1.02 1.182-2.304 2.128-3.76 2.77z" fill="#13969d"/><path d="M42.93 34.345v6.644l-4.706 3.367-4.706-3.367v-6.644c1.467.68 3.076 1.032 4.706 1.032s3.24-.353 4.706-1.032z" fill="#f2b59d"/><path d="M22.928 62.314h-7.06v8.98h7.06v-8.98z" fill="#f2c4b2"/><path d="M22.928 58.947v3.367H12.34l.94-3.367h9.648z" fill="#13969d"/><path d="M60.577 62.314h-7.06v8.98h3.53v-4.5a2.19 2.19 0 0 1 .69-1.587c.442-.42 1.04-.657 1.664-.657h1.177v-2.245zm-44.707 0h7.06v8.98H19.4v-4.5a2.19 2.19 0 0 0-.69-1.587c-.442-.42-1.04-.657-1.664-.657H15.87v-2.245zm27.06-27.97c-1.467.68-3.076 1.032-4.706 1.032a11.21 11.21 0 0 1-4.706-1.032v6.644l.83.594 8.582-5.457v-1.78z" fill="#f2a283"/><path d="M48.8 20.787v4.5l1.052-.502a2.32 2.32 0 0 0 .95-.828 2.17 2.17 0 0 0 .352-1.18V21.9c0-.298-.124-.583-.345-.794s-.52-.33-.832-.33H48.8zm-21.176 0v4.5l-1.052-.502a2.32 2.32 0 0 1-.95-.828 2.17 2.17 0 0 1-.352-1.18V21.9c0-.298.124-.583.345-.794s.52-.33.832-.33h1.177zm10.59 4.5c.325 0 .588-.502.588-1.122s-.263-1.122-.588-1.122-.588.503-.588 1.122.263 1.122.588 1.122z" fill="#d9896d"/><path d="M41.046 16.284c-.016.005-.033.01-.05.01-.235.04-.415-.316-.415-.56 0-.068.027-1.683 2.353-1.683s2.353 1.615 2.353 1.683a.57.57 0 0 1-.065.285.6.6 0 0 1-.2.221c-.17.1-.338.007-.47-.146-.065-.076-.118-.17-.185-.242-.07-.065-.148-.12-.235-.16a3.54 3.54 0 0 0-.651-.282 1.97 1.97 0 0 0-.923-.027 1.92 1.92 0 0 0-.825.394 2.48 2.48 0 0 1-.687.507zm-5.64 0c.016.005.033.01.05.01.235.04.415-.316.415-.56 0-.068-.027-1.683-2.353-1.683s-2.353 1.615-2.353 1.683a.57.57 0 0 0 .065.285.6.6 0 0 0 .2.221c.17.1.338.007.47-.146.065-.076.118-.17.185-.242.07-.065.148-.12.235-.16a3.54 3.54 0 0 1 .651-.282 1.97 1.97 0 0 1 .923-.027 1.92 1.92 0 0 1 .825.394 2.48 2.48 0 0 0 .687.507zm8.112 7.31c.65 0 1.176-1.005 1.176-2.245s-.527-2.245-1.176-2.245-1.176 1.005-1.176 2.245.527 2.245 1.176 2.245zm-10.59 0c.65 0 1.177-1.005 1.177-2.245s-.527-2.245-1.177-2.245-1.177 1.005-1.177 2.245.527 2.245 1.177 2.245z" fill="#43251a"/><path d="M46.458 8.442H33.516c-.936 0-1.834-.355-2.496-.986a3.29 3.29 0 0 1-1.034-2.381 3.29 3.29 0 0 1 1.034-2.381c.662-.63 1.56-.986 2.496-.986-2.496 0-4.9.946-6.655 2.63s-2.757 3.968-2.757 6.35v5.612c.856-1.22 2.1-2.153 3.53-2.67 3.346-1.342 6.962-1.963 10.59-1.818 3.627-.145 7.242.476 10.59 1.818 1.44.518 2.673 1.452 3.53 2.67v-2.245c0-1.488-.62-2.916-1.723-3.968a6.03 6.03 0 0 0-4.16-1.644z" fill="#21abab"/><path d="M48.81 11.382c-3.346-1.342-6.962-1.963-10.59-1.818-3.627-.145-7.242.476-10.59 1.818-1.44.518-2.673 1.452-3.53 2.67v2.245c.856-1.22 2.1-2.153 3.53-2.67 3.346-1.342 6.962-1.963 10.59-1.818 3.627-.144 7.242.476 10.59 1.818 1.44.518 2.673 1.452 3.53 2.67v-2.245c-.856-1.22-2.1-2.153-3.53-2.67z" fill="#13969d"/><path d="M55.87 61.2v-2.245h-2.353v3.367h10.6l-.313-1.122H55.87zm-35.295 0h-7.922l-.314 1.122h10.6v-3.367h-2.353V61.2z" fill="#107c82"/><path d="M53.517 58.947V51.1a2.41 2.41 0 0 1 1.664.657c.44.42.7.992.7 1.587v5.612h-2.353zm-30.59 0V51.1a2.41 2.41 0 0 0-1.664.657c-.44.42-.7.992-.7 1.587v5.612h2.353z" fill="#21abab"/><path d="M34.827 42.4l.353-.224L33.516 41l-4.54 1.235 9.247 6.622 1.238-.887-4.733-3.763a1.13 1.13 0 0 1-.325-.413c-.073-.16-.106-.334-.096-.508s.062-.344.153-.496.217-.28.37-.378z" fill="#107c82"/><path d="M47.635 67.925h-3.53c-.606-.002-1.188-.227-1.625-.628a2.2 2.2 0 0 1-.719-1.525c-11.07-2.027-18.834-6.826-18.834-12.438v17.957h30.6v-4.49c-1.287 0-2.552-.04-3.798-.107a2.29 2.29 0 0 1-.861.894 2.44 2.44 0 0 1-1.223.335z" fill="#21abab"/><path d="M49.988 58.947h-8.236v2.245h8.236v-2.245zM31.243 26.254a24.09 24.09 0 0 0-3.61 1.267 9.98 9.98 0 0 0 2.122 4.054c1.02 1.182 2.304 2.128 3.76 2.77 1.467.68 3.076 1.032 4.706 1.032a11.21 11.21 0 0 0 4.706-1.032l.235-.122c-6.243-.3-11.253-3.68-11.92-7.97z" fill="#107c82"/><path d="M27.046 42.112v22.04l-3.127.994a.59.59 0 0 0-.291.204c-.072.096-.1.2-.1.33v5.612h1.177v-5.208l2.94-.935 2.94.935v5.208h1.177V65.68c0-.118-.04-.233-.1-.33a.59.59 0 0 0-.291-.204l-3.127-.993v-22.04a2.71 2.71 0 0 1 .86-1.984 3.03 3.03 0 0 1 2.08-.822h2.353v-1.122h-2.353c-1.092 0-2.14.414-2.912 1.15s-1.206 1.736-1.206 2.778zm18.236-3.928H42.93v1.122h2.353c.78 0 1.528.296 2.08.822a2.74 2.74 0 0 1 .86 1.984v16.835H49.4V42.112c0-1.042-.434-2.04-1.206-2.778s-1.82-1.15-2.912-1.15z" fill="#e3e3e3"/></svg>
